src/assets/images/icons/insurance.svg

<?xml version="1.0" encoding="utf-8"?>
<svg width="29" height="28" viewBox="0 0 29 28" fill="none" xmlns="http://www.w3.org/2000/svg">
<path d="M26.1999 24.1699H2.7999C2.2599 24.1699 1.8999 24.5299 1.8999 25.0699V26.8699C1.8999 27.4099 2.2599 27.7699 2.7999 27.7699H26.1999C26.7399 27.7699 27.0999 27.4099 27.0999 26.8699V25.0699C27.0999 24.5299 26.7399 24.1699 26.1999 24.1699Z" fill="#1F3D56"/>
<path d="M28.0001 4.36953H20.8001V1.66953C20.8001 1.12953 20.4401 0.769531 19.9001 0.769531H9.1001C8.5601 0.769531 8.2001 1.12953 8.2001 1.66953V4.36953H1.0001C0.460098 4.36953 0.100098 4.72953 0.100098 5.26953V21.4695C0.100098 22.0095 0.460098 22.3695 1.0001 22.3695H28.0001C28.5401 22.3695 28.9001 22.0095 28.9001 21.4695V5.26953C28.9001 4.72953 28.5401 4.36953 28.0001 4.36953ZM19.0001 14.2695C19.0001 14.8095 18.6401 15.1695 18.1001 15.1695H16.3001V16.9695C16.3001 17.5095 15.9401 17.8695 15.4001 17.8695H13.6001C13.0601 17.8695 12.7001 17.5095 12.7001 16.9695V15.1695H10.9001C10.3601 15.1695 10.0001 14.8095 10.0001 14.2695V12.4695C10.0001 11.9295 10.3601 11.5695 10.9001 11.5695H12.7001V9.76953C12.7001 9.22953 13.0601 8.86953 13.6001 8.86953H15.4001C15.9401 8.86953 16.3001 9.22953 16.3001 9.76953V11.5695H18.1001C18.6401 11.5695 19.0001 11.9295 19.0001 12.4695V14.2695ZM19.0001 4.36953H10.0001V2.56953H19.0001V4.36953Z" fill="#1F3D56"/>
</svg>

<svg width="29" height="28" fill="none" xmlns="http://www.w3.org/2000/svg"><path d="M26.2 24.17H2.8c-.54 0-.9.36-.9.9v1.8c0 .54.36.9.9.9h23.4c.54 0 .9-.36.9-.9v-1.8c0-.54-.36-.9-.9-.9zM28 4.37h-7.2v-2.7c0-.54-.36-.9-.9-.9H9.1c-.54 0-.9.36-.9.9v2.7H1c-.54 0-.9.36-.9.9v16.2c0 .54.36.9.9.9h27c.54 0 .9-.36.9-.9V5.27c0-.54-.36-.9-.9-.9zm-9 9.9c0 .54-.36.9-.9.9h-1.8v1.8c0 .54-.36.9-.9.9h-1.8c-.54 0-.9-.36-.9-.9v-1.8h-1.8c-.54 0-.9-.36-.9-.9v-1.8c0-.54.36-.9.9-.9h1.8v-1.8c0-.54.36-.9.9-.9h1.8c.54 0 .9.36.9.9v1.8h1.8c.54 0 .9.36.9.9v1.8zm0-9.9h-9v-1.8h9v1.8z" fill="#1F3D56"/></svg>
